X: 41930
T: Wakin' Nancy
R: jig
M: 6/8
K: Gmajor
|:f|ecA GEG|cGa g2 e|fdc B^AB|GB/c/d agf|
ecA GEG|cGa g2 e|fdc B^AB|fdB c2:|
|:d/c/|B^AB cBc|dgb b^ab|dfa a^ga|gba gdc|
B^AB cBc|dgb b^ab|dfa agf|1 g/a/ba g2:|

